v/0.4.11/design-resources/icons/wf_doctype-icons/file-mspowerpoint.svg

<?xml version="1.0" encoding="utf-8"?>
<!-- Generated by IcoMoon.io -->
<!DOCTYPE svg PUBLIC "-//W3C//DTD SVG 1.1//EN" "http://www.w3.org/Graphics/SVG/1.1/DTD/svg11.dtd">
<svg version="1.1" xmlns="http://www.w3.org/2000/svg" xmlns:xlink="http://www.w3.org/1999/xlink" width="512" height="512" viewBox="0 0 512 512">
<g>
</g>
	<path d="M264.534 416h-200.534v-320h348.8c19.409 0 35.2 15.791 35.2 35.2v47.576c7.665 5.677 13.587 11.967 18.072 17.861 5.756 7.564 10.403 16.122 13.928 25.471v-90.908c0-37.114-30.086-67.2-67.2-67.2h-380.8v384h232.534v-32z" fill="#595959" />
	<path d="M455.069 351.057c-2.253 2.012-4.615 3.91-7.069 5.704v59.239h-68.209v32h100.209v-133.34c-6.596 16.935-16.243 28.637-24.931 36.397z" fill="#595959" />
	<path d="M386.235 192.041l-110.235-0.041v38.096h20.534v217.904h51.257v-102.169h27.408c48.41 0 80.801-24.018 80.801-77.074 0.001-38.358-17.796-76.716-69.765-76.716zM370.573 307.833h-22.781v-77.794h21.358c25.628 0 35.593 14.34 35.593 39.435 0.001 26.17-13.881 38.357-34.17 38.359z" fill="#595959" />
</svg>

<svg xmlns="http://www.w3.org/2000/svg" width="512" height="512" viewBox="0 0 512 512"><path stroke="#449FDB" d="M0 0"/><path d="M264.534 416H64V96h348.8c19.41 0 35.2 15.79 35.2 35.2v47.576c7.665 5.677 13.587 11.967 18.072 17.86 5.756 7.565 10.403 16.123 13.928 25.472V131.2c0-37.114-30.086-67.2-67.2-67.2H32v384h232.534v-32zm190.536-64.943c-2.254 2.012-4.616 3.91-7.07 5.704V416h-68.21v32H480V314.66c-6.596 16.935-16.243 28.637-24.93 36.397zM386.235 192.04L276 192v38.096h20.534V448h51.257V345.83h27.41c48.41 0 80.8-24.017 80.8-77.073 0-38.358-17.795-76.716-69.764-76.716zm-15.662 115.793h-22.78V230.04h21.357c25.628 0 35.593 14.34 35.593 39.434 0 26.17-13.88 38.357-34.17 38.36z" fill="#595959"/></svg>
